!!!COM: Morley, Thomas
!!!OTL: Domine, Non Est Exaltatum Cor Meum
!!!YOR: from 'Collected Motets' edited by H.K. Andrews & Thurston Dart, pp.29-48
!!!YOO: Stainer & Bell (London)
!!!YOY: 1959
**kern	**kern	**kern	**kern	**kern
*ICvox	*ICvox	*ICvox	*ICvox	*ICvox
! Bassus	! Tenor	! Altus	! Altus	! Cantus
*M2/2	*M2/2	*M2/2	*M2/2	*M2/2
=1	=1	=1	=1	=1
1r	2.A	1r	1r	1r
.	4A	.	.	.
=2	=2	=2	=2	=2
1r	2.E	1r	1r	1r
.	4G	.	.	.
=3	=3	=3	=3	=3
1r	4A	1r	2.e	1r
.	4.c	.	.	.
.	8B	.	.	.
.	8A	.	4e	.
.	8G	.	.	.
=4	=4	=4	=4	=4
1r	4Fn	1r	4A	1r
.	{4E	.	4c	.
.	2D	.	4d	.
.	.	.	[4fn	.
=5	=5	=5	=5	=5
1r	4A	1r	8f]	2.a
.	.	.	{8e	.
.	4G	.	2e}	.
.	2Fn}	.	.	.
.	.	.	{4d	4a
=6	=6	=6	=6	=6
1r	2E	1r	4.e}	4g#
.	.	.	.	4gn
.	.	.	{8d	.
.	4.A	.	4c}	4a
.	.	.	4c	[4cc
.	8A	.	.	.
=7	=7	=7	=7	=7
1r	4G	1r	{4e	4cc]
.	4G	.	4g	4.b
.	4A	.	4fn	.
.	.	.	.	{8a
.	4c	.	[4e	4a}
=8	=8	=8	=8	=8
2.E	4B	2r	8e]	8g#
.	.	.	16d	{8e
.	.	.	16c	.
.	4c	.	8B	2a}
.	.	.	8A	.
.	4B	[2e	2B}	.
4E	4E	.	.	4g#
=9	=9	=9	=9	=9
2.AA	4E	4e]	4A	2a
.	4E	4e	4.c	.
.	4r	[2A	.	2r
.	.	.	{8d	.
4AA	4E	.	8e	.
.	.	.	8c	.
=10	=10	=10	=10	=10
4D	4Fn	2A]	2fn}	1r
2Fn	2A	.	.	.
.	.	4r	4c	.
4E	4G	4c	4c	.
=11	=11	=11	=11	=11
2D	4B-	4d	2Fn	1r
.	{4.A	4fn	.	.
4AA	.	4f	2c	.
.	8G}	.	.	.
4C	4E	[4e	.	.
=12	=12	=12	=12	=12
2D	{4Fn	8e]	4A	2.a
.	.	8d	.	.
.	4D	2d	2fn	.
2AA	4A	.	.	.
.	4E}	4c#	[4e	4a
=13	=13	=13	=13	=13
2D	4Fn	2d	8e]	2a
.	.	.	8d	.
.	4fn	.	{2d	.
2A	4e	4r	.	4r
.	[4A	8e	4c#}	4a
.	.	8e	.	.
=14	=14	=14	=14	=14
4D	4A]	4fn	2d	4dd
4D	4.A	4d	.	4ffn
2C	.	{4a	2r	4ff
.	{8B	.	.	.
.	4c	4g}	.	[4ee
=15	=15	=15	=15	=15
4D	2A}	{2fn	2r	8ee]
.	.	.	.	8dd
4D	.	.	.	2dd
2AA	[2A	4e}	4r	.
.	.	[{4e	4e	4cc#
=16	=16	=16	=16	=16
2D	4A]	8e]	{4f	2dd
.	.	8d}	.	.
.	4A	{2d	4d}	.
2E	2G	.	4g	2r
.	.	4c#}	[4g	.
=17	=17	=17	=17	=17
{2D	8A	2d	4g]	2r
.	8A	.	.	.
.	{2d	.	4fn	.
2A}	.	2r	2e	4r
.	4c#}	.	.	4a
=18	=18	=18	=18	=18
2D	2d	1r	4f#	4a
.	.	.	2fn	4a
2r	4.A	.	.	4.ccn
.	.	.	[{4e	.
.	{8G	.	.	8b
=19	=19	=19	=19	=19
1r	4Fn	1r	8e]	4a
.	.	.	8d	.
.	4D	.	4fn	4.dd
.	2G	.	4e	.
.	.	.	.	8cc
.	.	.	[4d	8b
.	.	.	.	{8a
=20	=20	=20	=20	=20
1r	4E	1r	4d]	8g
.	.	.	.	8f#
.	4A	.	4c#}	4e
.	2D}	.	4d	2f#
.	.	.	[{4d	.
=21	=21	=21	=21	=21
4r	1A	2r	4d]	1e}
4AA	.	.	8c#	.
.	.	.	8B	.
4AA	.	4r	2c#}	.
4AA	.	4A	.	.
=22	=22	=22	=22	=22
4.D	4r	4A	2d	2f#
.	4F#	4A	.	.
8D	.	.	.	.
4GG	[{2B	4.d	4r	2r
[4G	.	.	4d	.
.	.	8d	.	.
=23	=23	=23	=23	=23
8G]	4B]	4B	4d	1r
8G	.	.	.	.
4F#	4A	4.d	4d	.
2E	2G}	.	4.g	.
.	.	8d	.	.
.	.	4c#	.	.
.	.	.	8g	.
=24	=24	=24	=24	=24
4.D	4A	{4d	4f#	1r
.	4A	4.f#	4.a	.
{8E	.	.	.	.
4F#	4A	.	.	.
.	.	8e	8g	.
4G	4B	4d	[{4g	.
=25	=25	=25	=25	=25
2A}	4.c	4cn	4g}]	1r
.	.	4A}	4f#	.
.	8c	.	.	.
4G	4B	4d	4g	.
{4E	[4e	[4g	8G	.
.	.	.	8G	.
=26	=26	=26	=26	=26
4F#	8e]	8g]	4A	2r
.	8d	8g	.	.
4D	2d	4f#	{4.a	.
2AA}	.	2e	.	4r
.	.	.	8g	.
.	{4c#	.	4e}	4a
=27	=27	=27	=27	=27
2D	4.d	4d	4f#	4a
.	.	4d	4f#	4a
.	8cn	.	.	.
2r	2B}	4d	4f#	4.dd
.	.	4d	{4g#	.
.	.	.	.	8dd
=28	=28	=28	=28	=28
1r	4.A	4.e	4a}	4cc
.	.	.	4.cc	4.ee
.	{8B	8e	.	.
.	4cn	4e	.	.
.	.	.	8b	8ee
.	4Fn	[4fn	[4a	[4dd
=29	=29	=29	=29	=29
2r	2A	8f]	8a]	8dd]
.	.	8e	{8g	{8cc
.	.	4c	8e}	2cc
.	.	.	{8fn	.
2GG	2G}	{4d	4g}	.
.	.	4e	[4g	8b
.	.	.	.	8a
=30	=30	=30	=30	=30
4GG	1G	2d	8g]	2b
.	.	.	{8fn	.
4GG	.	.	4d}	.
4.C	.	2c	4e	2cc}
.	.	.	[4e	.
8C	.	.	.	.
=31	=31	=31	=31	=31
4GG	{2.G	2d}	8e]	4b
.	.	.	8d	.
8BB	.	.	4B	4.dd
8BB	.	.	.	.
2C	.	4e	{4G	.
.	.	.	.	8cc
.	4E}	[4g	4e}	[4cc
=32	=32	=32	=32	=32
{2D	4A	8g]	2d	4cc]
.	.	8fn	.	.
.	4.d	2f	.	4b
2A}	.	.	4r	2cc
.	8c	.	.	.
.	[4c	{4e	[4a	.
=33	=33	=33	=33	=33
1D	4c]	1d	8a]	2r
.	.	.	8g	.
.	{4B	.	2g	.
.	4A	.	.	4r
.	[4D	.	4f#	[4dd
=34	=34	=34	=34	=34
{1GG	4D]	4B	2g	8dd]
.	.	.	.	8cc
.	4E	4c	.	2cc
.	2D}	4d}	4r	.
.	.	[4G	[4g	4b
=35	=35	=35	=35	=35
2C	4E	4G]	8g]	4cc
.	.	.	8g	.
.	8E	4.c	4e	4.a
.	8E	.	.	.
[2D	4F#	.	2d	.
.	.	8c	.	8g
.	{4G	4B	.	[4g
=36	=36	=36	=36	=36
2D}]	4A	2A	2d	4g]
.	2D	.	.	4f#
[2GG	.	4B	2r	[2g
.	4E}	[4c	.	.
=37	=37	=37	=37	=37
2GG]	2D	8c]	4r	1g]
.	.	8c	.	.
.	.	4.B	2d	.
4.G	4r	.	.	.
.	.	{8A	.	.
.	[4G	[4d	4d	.
8F#	.	.	.	.
=38	=38	=38	=38	=38
8E	4G]	4d]	4e	1r
{8D	.	.	.	.
4E	4G	4c#	4e	.
2D	4A	[2d	2f#	.
.	4A	.	.	.
=39	=39	=39	=39	=39
2GG	2B	2d}]	4d	2r
.	.	.	{4.g	.
2C	4G	2e	.	4r
.	.	.	8f#	.
.	[4c	.	[4e	[4g
=40	=40	=40	=40	=40
2G}	4c]	2r	8e}]	4g]
.	.	.	{8d	.
.	{4B	.	2g	4g
2D	2A}	4r	.	4a
.	.	[4d	4f#	4a
=41	=41	=41	=41	=41
1r	4.G	4d]	4g}	{4b
.	.	4d	2G	2dd
.	8F#	.	.	.
.	2E	4e	.	.
.	.	4e	4G	4cc#}
=42	=42	=42	=42	=42
1r	{2D	2f#	4A	2dd
.	.	.	4A	.
.	[2G	4d	4B	4r
.	.	[4e	[4c	[4g
=43	=43	=43	=43	=43
1r	2G]	8e]	4c]	4g]
.	.	{8d	.	.
.	.	2g	4B	4g
.	2D}	.	4A	4a
.	.	4f#	[4d	4a
=44	=44	=44	=44	=44
4r	1G	4g}	4d]	4b
2GG	.	2.d	2g	4.b
.	.	.	.	{8a
4GG	.	.	{4f#	[4dd
=45	=45	=45	=45	=45
4AA	1r	2a	2e}	4dd}]
4AA	.	.	.	{4cc#
2BB	.	{4f#	4d	4dd}
.	.	[4g	[4d	4b
=46	=46	=46	=46	=46
2GG	1r	8g]	4d]	4r
.	.	8f#	.	.
.	.	8e	4d	2g
.	.	8d	.	.
4C	.	4c	4e	.
{4E	.	4B	4e	4g
=47	=47	=47	=47	=47
2D}	1r	2.d	4f#	4a
.	.	.	2d	4a
2G	.	.	.	2b
.	.	4B	[{4g	.
=48	=48	=48	=48	=48
2C	4r	2c}	8g]	4a
.	.	.	8f#	.
.	2G	.	4.e}	2cc
{2GG	.	2d	.	.
.	.	.	{8d	.
.	4G	.	[4g	{4b
=49	=49	=49	=49	=49
2D	8A	2r	4g]	2a}
.	8A	.	.	.
.	{2d	.	4f#	.
2AA}	.	4r	2e}	[2a
.	4c#}	4A	.	.
=50	=50	=50	=50	=50
1D	4d	4A	4f#	2a]
.	4d	4Fn	4a	.
.	{4A	8d	4a	2r
.	.	8e	.	.
.	4Fn}	[4fn	4d	.
=51	=51	=51	=51	=51
2AA	4c	8f]	8a	1r
.	.	8fn	8b	.
.	4A	4.e	4.cc	.
{2E	4A	.	.	.
.	.	{8f	8cc	.
.	4G	4g}	[4b	.
=52	=52	=52	=52	=52
4D	8A	{4fn	8b]	2r
.	8B	.	{8a	.
4C	4.cn	4.e	2a}	.
2E}	.	.	.	4r
.	8c	8d	.	.
.	[4B	4B}	4g#	4ee
=53	=53	=53	=53	=53
4AA	8B]	4c	{4.a	4ee
.	{8A	.	.	.
4D	4.A}	2d	.	4a
.	.	.	8gn	.
2D	.	.	8fn	8dd
.	{8G	.	8e	8ee
.	8Fn	[4a	4d	[4ffn
.	8D	.	.	.
=54	=54	=54	=54	=54
2AA	2A	8a]	4c}	8ff]
.	.	8b	.	8ff
.	.	4.cc	2A	4ee
2r	2D}	.	.	[2dd
.	.	8cc	.	.
.	.	[4b	{4d	.
=55	=55	=55	=55	=55
2r	2E	8b]	4B	4dd]
.	.	{8a	.	.
.	.	2a}	4.e	{4cc
2E	2r	.	.	2b}
.	.	.	8d	.
.	.	4g#	4B}	.
=56	=56	=56	=56	=56
4AA	2A	4a	2c#	2a
4AA	.	4e	.	.
4D	4A	8fn	2r	2r
.	.	8f	.	.
4E	4G	[4e	.	.
=57	=57	=57	=57	=57
4.Fn	4A	4e]	1r	2a
.	4B	4d	.	.
8F	.	.	.	.
2E	8.c	2e	.	4a
.	16c	.	.	.
.	[4B	.	.	4g
=58	=58	=58	=58	=58
4D	8B]	4fn	1r	4b
.	{8A	.	.	.
{4C	2A}	{4e	.	4cc
2BB}	.	4d	.	4.dd
.	4G#	4B}	.	.
.	.	.	.	8dd
=59	=59	=59	=59	=59
2AA	4.A	4e	1r	2cc
.	.	4.fn	.	.
.	{8B	.	.	.
2A	8c}	.	.	{4a
.	{8d	{8e	.	.
.	4e	4c	.	[4cc
=60	=60	=60	=60	=60
1Fn	4A	4d	1r	8cc]
.	.	.	.	8b
.	2c	4.e	.	8a
.	.	.	.	8g#
.	.	.	.	4a}
.	.	16d	.	.
.	.	16c	.	.
.	8B	4d}	.	[{4a
.	8A	.	.	.
=61	=61	=61	=61	=61
2E	2B}	[1e	4r	4a]
.	.	.	4e	4g#}
2AA	[2c#	.	4e	4a
.	.	.	4A	4ee
=62	=62	=62	=62	=62
4AA	4c#]	2e]	8a	4ee
.	.	.	8b	.
4A	4A	.	4.cc	4a
4.E	4A	2r	.	8ee
.	.	.	8cc	8ffn
.	4G	.	[4b	4gg
8E	.	.	.	.
=63	=63	=63	=63	=63
4D	8A	1r	8b]	4ffn
.	8B	.	{8a	.
4C	4cn	.	2a}	4.ee
2E	2B	.	.	.
.	.	.	.	{8dd
.	.	.	4g#	4b}
=64	=64	=64	=64	=64
4AA	4A	1r	4a	{8cc
.	.	.	.	8dd
4C	8r	.	{4gn	4ee
.	8c	.	.	.
{2FFn	4.fn	.	2a	8dd
.	.	.	.	8cc
.	.	.	.	[4cc
.	8e	.	.	.
=65	=65	=65	=65	=65
1GG}	4d	2r	4g}	4cc]
.	{4e	.	{4.g	8b
.	.	.	.	8a
.	2d}	4r	.	2b}
.	.	.	8fn	.
.	.	4g	4d}	.
=66	=66	=66	=66	=66
4.C	4c	4g	4.e	2cc
.	4G	4e	.	.
{8BB	.	.	{8d	.
4AA}	4A	8fn	4c}	2r
.	.	8f	.	.
{4GG	4D	4g	4B	.
=67	=67	=67	=67	=67
2FFn	4.Fn	4.a	2A	4r
.	.	.	.	2cc
.	8F	8b-	.	.
4.C	4E	{8a	2r	.
.	.	8g	.	.
.	4G	[4g	.	[4cc
8BB	.	.	.	.
=68	=68	=68	=68	=68
2AA}	{2c	4g]	1r	4cc]
.	.	4f#	.	4a
4GG	4B	4g	.	8b
.	.	.	.	8b
4C	4G}	4e}	.	4cc
=69	=69	=69	=69	=69
{4BB	4B	4d	1r	4.dd
4C	4G	4c	.	.
.	.	.	.	8ee
2FFn	{4.Fn	4A	.	{8dd
.	.	.	.	8cc
.	.	[{4a	.	[4cc
.	8E	.	.	.
=70	=70	=70	=70	=70
1GG}	4D	8a]	2r	4cc]
.	.	8g	.	.
.	4E}	4.g	.	8b
.	.	.	.	8a
.	4D	.	4r	2b}
.	.	8fn	.	.
.	[4G	4d}	4g	.
=71	=71	=71	=71	=71
4C	4G]	4e	4g	2cc
4C	4G	4.e	4e	.
4D	4F#	.	8f#	2r
.	.	8d	8f#	.
4BB	8B	[{4d	4g	.
.	8B	.	.	.
=72	=72	=72	=72	=72
4.AA	4E	4d]	4.a	1r
.	4.e	2c	.	.
8AA	.	.	8b	.
4BB	.	.	{8a	.
.	8d	.	8g	.
4GG	[{4d	4B	[4g	.
=73	=73	=73	=73	=73
2D	8d]	2A	4g]	4r
.	8c	.	.	.
.	4A}	.	4f#}	4dd
2GG	4B	8.G	2g	4dd
.	.	16A	.	.
.	4G	8B	.	[4b
.	.	8c	.	.
=74	=74	=74	=74	=74
1r	4G	4d	2g	4b]
.	4E	4e	.	4.cc
.	8Fn	2d}	4fn	.
.	8F	.	.	8cc
.	4G	.	[{4d	4b
=75	=75	=75	=75	=75
2r	2E	2G	4d]	8a
.	.	.	.	8g
.	.	.	4c#}	{2g
2D	4F#	4A	2d	.
.	{4G	8B	.	8f#
.	.	{8c	.	8e
=76	=76	=76	=76	=76
4D	4A	2d	1r	4f#
4BB	4B	.	.	2g
8C	2A}	4e	.	.
8C	.	.	.	.
4D	.	[4d	.	4f#}
=77	=77	=77	=77	=77
2.E	2.G	4d]	4r	2g
.	.	8c#	4g	.
.	.	8B	.	.
.	.	2c#}	4g	2r
4E	4G	.	4e	.
=78	=78	=78	=78	=78
{4D	4A	4d	8f#	1r
.	.	.	8f#	.
4BB	4B	4d	4g	.
2AA	8c	4e	4.a	.
.	8c	.	.	.
.	[4c	[{4e	.	.
.	.	.	8b	.
=79	=79	=79	=79	=79
2E	8c]	8e]	{8a	2r
.	8B	8d	8g	.
.	8A	8B	2g	.
.	{8G	8c	.	.
2D}	2A}	4.d	.	4r
.	.	.	4f#}	4dd
.	.	8c}	.	.
=80	=80	=80	=80	=80
2GG	[1G	2B	4.g	4dd
.	.	.	.	4b
.	.	.	8f#	.
2C	.	4r	2e	4.cc
.	.	4g	.	.
.	.	.	.	8cc
=81	=81	=81	=81	=81
4GG	2G]	4g	4d	4b
{4C	.	4e	4c	4.ee
2D	2r	4.fn	4A	.
.	.	.	.	8dd
.	.	.	[4A	[{4dd
.	.	8f	.	.
=82	=82	=82	=82	=82
2AA	1r	4e	8A]	4dd]
.	.	.	8G	.
.	.	4.a	{4E	4cc#}
[2D	.	.	4F#	4dd
.	.	8g	.	.
.	.	[{4g	4B}	[4dd
=83	=83	=83	=83	=83
2D}]	4r	4g]	4A	8dd]
.	.	.	.	8cc
.	2d	4f#	4A	4a
2GG	.	[2g	4.G	2b
.	[4e	.	.	.
.	.	.	{8A	.
=84	=84	=84	=84	=84
4.G	8e]	4g]	4B	1r
.	8d	.	.	.
.	2d	4d	4A}	.
8F#	.	.	.	.
{8E	.	2g}	4G	.
8D	.	.	.	.
4E	{4c#	.	4G	.
=85	=85	=85	=85	=85
2D	2d}	2f#	4A	2r
.	.	.	4B	.
[2C	4.e	2r	4.c	4r
.	.	.	.	4g
.	8e	.	8B	.
=86	=86	=86	=86	=86
4C]	4e	1r	8A	4a
.	.	.	8G	.
4BB	{4d	.	2G	4b
2AA}	4c	.	.	2cc
.	4A}	.	{4F#	.
=87	=87	=87	=87	=87
2GG	4B	4r	4.G	4b
.	4.G	4d	.	8b
.	.	.	8F#	8b
2r	.	4e	4E	4cc#
.	8G	.	.	.
.	4A	4f#	4D	[{4dd
=88	=88	=88	=88	=88
1r	2G	2g	2E}	4dd]
.	.	.	.	4cc#}
.	4A	4f#	4.D	[2dd
.	4A	[4a	.	.
.	.	.	{8E	.
=89	=89	=89	=89	=89
1r	4A	8a]	4F#	4dd]
.	.	8g	.	.
.	4B	2g	4G	4.dd
.	2c	.	2A	.
.	.	.	.	8cc
.	.	{8f#	.	[4a
.	.	8e	.	.
=90	=90	=90	=90	=90
2r	4.d	4f#	4D	4a]
.	.	4g}	2G	{2b
.	{8c	.	.	.
[2D	8B}	[2d	.	.
.	{8c	.	.	.
.	4d}	.	4F#	[4a
=91	=91	=91	=91	=91
1D]	{8c	2d]	4A	8a]
.	8B	.	.	8g
.	8A}	.	4B	2g
.	{8G	.	.	.
.	2d	2r	2A}	.
.	.	.	.	4f#
=92	=92	=92	=92	=92
4E	2c}	1r	4G	4g
4F#	.	.	4r	8f#
.	.	.	.	8e}
[{2G	4B	.	4r	2d
.	[4B	.	4d	.
=93	=93	=93	=93	=93
4G]	8B]	1r	4e	4r
.	8c	.	.	.
4F#	4d	.	4f#	4a
2E}	2G	.	2g	4b
.	.	.	.	4cc#
=94	=94	=94	=94	=94
2D	2.A	2r	4f#	2dd
.	.	.	8f#	.
.	.	.	8f#	.
2r	.	4r	4e	4ccn
.	8A	8e	[{4a	[4cc
.	8A	8e	.	.
=95	=95	=95	=95	=95
1D	4F#	4d	8a]	8cc]
.	.	.	8g	8cc
.	{4G	{4.d	2g	4b
.	4A	.	.	2a
.	.	8c	.	.
.	4d	4A}	4f#	.
=96	=96	=96	=96	=96
4E	4G	4e	4g	2g
4F#	4c}	4r	8f#	.
.	.	.	8e}	.
[2G	4B	4r	2d	2r
.	[4B	4d	.	.
=97	=97	=97	=97	=97
4G]	8B]	4e	1r	1r
.	8c	.	.	.
4F#	4d	4f#	.	.
8E	{4G	4.g	.	.
8E	.	.	.	.
4C	[4c	.	.	.
.	.	8fn	.	.
=98	=98	=98	=98	=98
{4.G	8c]	8e	1r	4r
.	8B	8e	.	.
.	4A	4d	.	4dd
8F#	.	.	.	.
4E	4G	{4c#	.	4ee
4D	4F#	4d}	.	4ff#
=99	=99	=99	=99	=99
2.C	2E	1G	2r	4.gg
.	.	.	.	8ffn
.	4Cn	.	4r	8ee
.	.	.	.	8ee
4BB	8D	.	4d	4dd
.	8G	.	.	.
=100	=100	=100	=100	=100
2C}	4E	4r	4e	2cc
.	4C}	8A	4f#	.
.	.	8A	.	.
4GG	2D	2B	4.g	4b
{4BB	.	.	.	8dd
.	.	.	8f#	8dd
=101	=101	=101	=101	=101
4C	4r	{4G	8e	4cc
.	.	.	8e	.
4GG	{4G	4B	4d	4b
2C}	4E	2G}	2e	2cc
.	4C}	.	.	.
=102	=102	=102	=102	=102
2GG	2D	2G	2d	2b
4r	4r	4r	4r	4r
[4GG	[4G	[4d	[4g	[4b
=103	=103	=103	=103	=103
4GG]	4G]	4d]	4g]	4b]
4GG	4G	4d	4g	4b
4GG	4G	4d	4g	4b
4C	4E	4e	4g	4cc
=104	=104	=104	=104	=104
4.GG	4.G	4.d	4.g	4.b
8GG	8G	8d	8g	8b
2D	2A	2d	2f#	4a
.	.	.	.	8a
.	.	.	.	8b
=105	=105	=105	=105	=105
4r	2r	{2c	4.e	8cc
.	.	.	.	8dd
8C	.	.	.	{2ee
8D	.	.	8f#	.
8E	4.G	[2B	8g	.
{8F#	.	.	8a	.
4G}	.	.	[{4b	[4dd
.	8A	.	.	.
=106	=106	=106	=106	=106
{8GG	8B	4B}]	8b]	8dd]
8AA	8c	.	8a	8cc
8BB	{2d	4B	8g	8b
8C	.	.	16f#	16a
.	.	.	16e	16g
2D	.	4A	8d	8f#
.	.	.	8e	8g
.	4D	4Fn	4fn	8a
.	.	.	.	8b
=107	=107	=107	=107	=107
4C	4E	{4G	4e	8a
.	.	.	.	8g
4GG	4G	4B	4d	2g
2D}	4F#	8A	4.d	.
.	.	8G	.	.
.	4D}	4A	.	4f#}
.	.	.	8c}	.
=108	=108	=108	=108	=108
2GG	2D	4G	4B	1g
.	.	4B	4d	.
{4C	4r	4c	4e	.
4E	4G	4B}	4g	.
=109	=109	=109	=109	=109
4D	4A	4d	4fn	1r
4C}	4c	4r	4e	.
4D	4B	2r	4d	.
4D	4A	.	[4fn	.
=110	=110	=110	=110	=110
4E	4G	1r	8f]	2r
.	.	.	8e	.
4G	4.B	.	4.e	.
4F#	.	.	.	4r
.	8B	.	{8d	.
4F#	4A	.	4d	4dd
=111	=111	=111	=111	=111
2E	{4G	4r	4c#	4ee
.	4E	4g	4A}	4gg
8D	2A	4a	4d	4ff#
8D	.	.	.	.
4AA	.	4cc	4r	4ee
=112	=112	=112	=112	=112
{4BB	2F#	4b	1r	4dd
4D	.	4a	.	4.ff#
4E	2G	4g	.	.
.	.	.	.	8ee
4G	.	[4b	.	[4ee
=113	=113	=113	=113	=113
2F#	2A	8b]	4r	8ee]
.	.	8a	.	{8dd
.	.	4a	4d	2dd
2E}	4B	{4g	4e	.
.	4G}	4e}	4g	4cc#}
=114	=114	=114	=114	=114
4D	2A	2a	4f#	4dd
4AA	.	.	4e	8ccn
.	.	.	.	8cc
4BB	4r	4r	4d	4b
4D	8Fn	8A	8fn	[{4a
.	8F	8A	8f	.
=115	=115	=115	=115	=115
4C	8G	4E	4e	8a]
.	{8A	.	.	8g
{4GG	4B	{4G	{4.d	2g
4.D	2A}	4F#	.	.
.	.	.	8c	.
.	.	4D}	4A	4f#}
8D}	.	.	.	.
=116	=116	=116	=116	=116
4GG	2G	4D	2.B	2g
{8G	.	8r	.	.
8F#}	.	8d	.	.
8E	4r	4e	.	2r
{8D	.	.	.	.
4E}	4G	4g	4c#	.
=117	=117	=117	=117	=117
{4D	4A	4f#	4d}	1r
4C}	4c	4e	4G	.
4D	4B	4d	2r	.
4D	4A	[4f#	.	.
=118	=118	=118	=118	=118
4E	4G	8f#]	1r	2r
.	.	8e	.	.
4G	4.B	4.e	.	.
2F#	.	.	.	4r
.	8B	{8d	.	.
.	4A	4d	.	4dd
=119	=119	=119	=119	=119
2E	{4G	4c#	4r	4ee
.	4E	4B}	4g	4gg
4D	2A}	4d	4a	4ff#
8AA	.	4r	4cc	4ee
8AA	.	.	.	.
=120	=120	=120	=120	=120
4BB	4G	1r	4b	4dd
4D	4D	.	4.a	8ffn
.	.	.	.	8ff
4C	4E	.	.	4ee
.	.	.	8g	.
4GG	4G	.	8b	[{4dd
.	.	.	8b	.
=121	=121	=121	=121	=121
4AA	4F#	2r	4a	8dd]
.	.	.	.	8cc
4C	4E	.	{4.a	4ee
2BB	4F#	4r	.	2dd
.	.	.	8g	.
.	8D	4g	[4g	.
.	8D	.	.	.
=122	=122	=122	=122	=122
2AA	2A	4a	4g]	4cc
.	.	4ccn	4f#}	4a}
4GG	{4D	4b	4g	2dd
8D	4F#	[4a	4r	.
8D	.	.	.	.
=123	=123	=123	=123	=123
4C	4E	8a]	4r	2r
.	.	8g	.	.
4G	4B	8g	4d	.
.	.	8g	.	.
{4D	4A	4fn	4a	4r
4C	4E	{4e	4cc	4cc
=124	=124	=124	=124	=124
4GG}	4G	4d	4b	4dd
8FFn	4C}	4A}	4.a	4ffn
8FF	.	.	.	.
2GG	2G	2B	.	4ee
.	.	.	8g	.
.	.	.	8b	4dd
.	.	.	8b	.
=125	=125	=125	=125	=125
{2C	4.E	4r	4a	4cc
.	.	8c	{4g	4.ee
.	8E	8c	.	.
2D	4Fn	4A	2fn	.
.	.	.	.	8dd
.	{4D	[{4a	.	[4dd
=126	=126	=126	=126	=126
2AA	4E	8a]	2e}	4dd]
.	.	8g	.	.
.	4A}	4e	.	{4cc#
[2D	2A	[2fn	4d	4.dd
.	.	.	[4d	.
.	.	.	.	8ccn
=127	=127	=127	=127	=127
4D]	2r	4f]	4d]	8b
.	.	.	.	8a
4AA}	.	4e}	4c	2a
2E	4r	2e	4.B	.
.	[4e	.	.	4g#}
.	.	.	8B	.
=128	=128	=128	=128	=128
2.Fn	4e]	1r	2.A	2a
.	4.d	.	.	.
.	.	.	.	2r
.	{8c	.	.	.
4E	4c}	.	4G	.
=129	=129	=129	=129	=129
4.D	{8B	1r	4.F#	1dd
.	8A	.	.	.
.	2A	.	.	.
{8C	.	.	8E	.
2BB}	.	.	2D	.
.	4G#}	.	.	.
=130	=130	=130	=130	=130
4AA	4A	4r	4E	2ccn
4AA	4A	4.a	4e	.
4BB	4F#	.	2d	4.b
.	.	8g	.	.
4GG	4G	[4g	.	.
.	.	.	.	8b
=131	=131	=131	=131	=131
2D	2A	4g]	4r	2a
.	.	4fn	2d	.
2r	2A	4.e	.	4r
.	.	.	4c	[4ee
.	.	{8f#	.	.
=132	=132	=132	=132	=132
1r	2G	8g	4.B	4ee]
.	.	8a	.	.
.	.	4b}	.	4.dd
.	.	.	8B	.
.	4Fn	{4a	4d	.
.	.	.	.	8cc
.	{4E	[4g	4G	[{4cc
=133	=133	=133	=133	=133
1r	2D}	4g}]	4.d	8cc]
.	.	.	.	16b
.	.	.	.	16a
.	.	4fn	.	4b}
.	.	.	8d	.
.	2C	2e	4G	2cc
.	.	.	4g	.
=134	=134	=134	=134	=134
2r	4D	{4.d	4f#	4a
.	{2G	.	4g	{2b
.	.	8c	.	.
[2D	.	8B	2d	.
.	.	8c	.	.
.	4F#	4d}	.	[4a
=135	=135	=135	=135	=135
1D]	4A	{8c	4r	8a}]
.	.	8B	.	{8g
.	4B	8A	2d	2g
.	.	8G	.	.
.	4A}	4d}	.	.
.	4D	4A	4d	4f#}
=136	=136	=136	=136	=136
4GG	2D	4B	4.d	4g
2D	.	4f#	.	{4.a
.	.	.	8e	.
.	4r	4d	8f#	.
.	.	.	{8g	8b
4C	4E	[4e	[4a	4cc}
=137	=137	=137	=137	=137
4BB	{4F#	8e]	8a}]	{4dd
.	.	{8d	{8g	.
{4GG	4G	4.d	2g}	4b
2D}	4A}	.	.	4.a}
.	.	8c	.	.
.	4D	4A}	4f#	.
.	.	.	.	8a
=138	=138	=138	=138	=138
4GG	4D	4B	4g	4g
{4C	4r	4c	4e	2ee
2D}	2r	4A	4.fn	.
.	.	[4A	.	[4dd
.	.	.	8f	.
=139	=139	=139	=139	=139
{2AA	4r	8A]	4e	4dd]
.	.	{8G	.	.
.	2A	4E}	2a	{4cc#
[2D	.	4F#	.	4dd}
.	{4B	4G	4g	[{4dd
=140	=140	=140	=140	=140
4D}]	4A}	4.A	4g	8dd]
.	.	.	.	8ccn
4D	4D	.	4f#	4a}
.	.	8A	.	.
4GG	4D	4.G	[2g	4b
4C	[4e	.	.	4r
.	.	{8A	.	.
=141	=141	=141	=141	=141
{4.G	4e]	4B	4g]	1r
.	2d	4A}	4d	.
8F#}	.	.	.	.
8E	.	4G	4B	.
{8D	.	.	.	.
4E}	{4c#	4g	4G	.
=142	=142	=142	=142	=142
2.D	4.d}	4f#	2A	4r
.	.	8d	.	2dd
.	8d	{8e	.	.
.	4A	8f#	2r	.
.	.	8g	.	.
4AA	4A	[4a	.	4cc
=143	=143	=143	=143	=143
{4BB	4F#	8a}]	4r	4.b
.	.	{8g	.	.
4GG	4G	2g}	2d	.
.	.	.	.	8b
4.D}	4A	.	.	4.a
.	[4A	4fn	4d	.
{8D	.	.	.	8b
=144	=144	=144	=144	=144
4AA}	4A]	4e	4c	{8cc
.	.	.	.	8dd
{4Cn	4G	4e	4c	4.ee
2D}	4Fn	2fn	8A	.
.	.	.	8A	8dd
.	4D	.	[{4a	[4dd
=145	=145	=145	=145	=145
2AA	2A	2e	8a]	4dd}]
.	.	.	8g	.
.	.	.	4e	4cc#
[2D	4.A	4d	4.fn}	[2dd
.	.	8d	.	.
.	{8G	8d	{8e	.
=146	=146	=146	=146	=146
4D]	2Fn	4.A	8d	2dd]
.	.	.	8e	.
4D	.	.	8fn	.
.	.	8B	8d}	.
4AA	2E	2c	4e	2r
4AA	.	.	[4A	.
=147	=147	=147	=147	=147
2.D	4Fn	8d	4A]	4r
.	.	8e	.	.
.	4D}	4.fn	{4.a	8dd
.	.	.	.	8dd
.	[2A	.	.	4.a
.	.	{8e	8g	.
4D	.	8d	8fn}	.
.	.	8f}	8d	8b
=148	=148	=148	=148	=148
4AA	2A]	2e	2a	2cc
4AA	.	.	.	.
{4D	4r	4fn	4r	4dd
4C#	4A	[4e	8A	4ee
.	.	.	8A	.
=149	=149	=149	=149	=149
4.D}	4Fn	8e]	4.A	4.ffn
.	.	{16d	.	.
.	.	16c	.	.
.	4D	4d}	.	.
8D	.	.	8B	8ff
4AA	2A	{2e	4c	4ee
4A	.	.	8d	[4ee
.	.	.	{8e	.
=150	=150	=150	=150	=150
{4Fn	2r	4A}	2fn}	8ee]
.	.	.	.	{8dd
4D	.	{4.a	.	2dd
4.A}	4r	.	2e	.
.	.	8g}	.	.
.	8A	{4e	.	4cc#}
8A	8A	.	.	.
=151	=151	=151	=151	=151
2D	4.A	4.fn}	2d	2dd
.	8B	8f	.	.
4r	2c	4e	2A	2r
8A	.	[4e	.	.
8A	.	.	.	.
=152	=152	=152	=152	=152
4.Fn	8d	8e]	4A	1r
.	8e	{8d	.	.
.	4.fn	2d}	{4.a	.
8G	.	.	.	.
2A	.	.	.	.
.	8f	.	8g	.
.	[4e	4c#	4e	.
=153	=153	=153	=153	=153
4Fn	8e]	4d	2fn}	2r
.	{8d	.	.	.
4D	2d}	{4.a	.	.
4.A	.	.	2e	4r
.	.	8g	.	.
.	4c#	4e}	.	8a
8A	.	.	.	8a
=154	=154	=154	=154	=154
{2D	2d	4.fn	4d	4.a
.	.	.	4.A	.
.	.	8f	.	8b
2AA}	4r	4e	.	2cc
.	.	.	{8B	.
.	8A	8E	8c	.
.	8A	8E	8d	.
=155	=155	=155	=155	=155
2r	4.E	4.G	2.e}	2b
.	8F#	8A	.	.
4E	4G	4B	.	4b
4E	8A	[4E	4e	[{4cc
.	8B	.	.	.
=156	=156	=156	=156	=156
4.C	2c	4E]	1e	8cc]
.	.	.	.	8b
.	.	{8E	.	2a}
8D	.	8F#	.	.
2E	2B	8G	.	.
.	.	8A	.	.
.	.	8B}	.	4g#
.	.	{8d	.	.
=157	=157	=157	=157	=157
4AA	4A	4.c	1r	4a
4AA	4c	.	.	{8e
.	.	16B	.	8f#
.	.	16A	.	.
4.E	4B	4.B}	.	8g
.	.	.	.	8a
.	4E	.	.	8b}
8E	.	8B	.	{8dd
=158	=158	=158	=158	=158
4AA	4E	4A	4r	4.cc}
8AA	8A	8a	8E	.
8AA	8A	8a	8E	8cc
4.E	2B	[2g	4.G	2b
8Fn	.	.	8A	.
=159	=159	=159	=159	=159
4G	2E	4g]	4B	4r
8A	.	4.g	2E	4.b
8B	.	.	.	.
2cn	4.Cn	.	.	.
.	.	{8f#	.	{8a
.	.	[4e	{8E	[4a
.	{8D	.	8F#	.
=160	=160	=160	=160	=160
*M3/2	*M3/2	*M3/2	*M3/2	*M3/2
2B	2E}	8e]	8G	4a}]
.	.	8d	8A	.
.	.	4B}	8B}	4g#
.	.	.	{8d	.
4A	4r	8e	4.c	4a
.	.	8e	.	.
4AA	4c	2a	.	[4ee
.	.	.	16B	.
.	.	.	16A	.
4.E	4B	.	4B}	8ee]
.	.	.	.	{8dd
.	4E	4g#	4B	4b}
8E	.	.	.	.
=161	=161	=161	=161	=161
*M4/4	*M4/4	*M4/4	*M4/4	*M4/4
1AA;	1E;	1a;	1A;	1cc#;
==	==	==	==	==
*-	*-	*-	*-	*-
!!!ENC: Mark Laxton
!!!EDD: Mark Laxton
!!!YEC: Mark Laxton, 1987
!!!EMD: Reference records added by D. Huron, 2001
!!!EEV: 1.1
